X: 37524
T: Slippery Slope, The
R: reel
M: 4/4
K: Eminor
c'|bgfg e2 gB|dega befe|edAG AAdf|gbfb e2 ef|
gb b/b/b afea|f/a/d AG FAD^D|EEBE G/G/A BG|1 FAAF E2 z c':|2 FAAF E2 z d||
BG G/G/G FDEF|GBde edef|gbbg faaf|e3 e' e'bad'|
bg g/g/g af f/f/f|eBGB E3 e|dAFA D3 ^D|E2 EE EE E/E/E|
|:E2 BE E/E/E BE|E/E/E BE DDDD|E3 E GABd|e/f/g fe dBAf|
eBGB E3 e|dAFA D3 ^D|E2 BE G/G/A BG|FAAF E2 z2:|

